X: 1
T:The Taking of Beaumont Hamel  "CYMRU - Composed During the Great War,
M:C|
L:1/8
Q:80
C:P/M J. MacLellan
S:March
K:HP
|: {g}A3/4B/4|
{g}c/4e3/4{A}e3/4f/4{gcd}c{g}B/4{d}A3/4|
{g}c/4{d}A3/4{g}c/4e3/4{g}f3/4g/4a3/4f/4|  !
{gef}e{g}A3/4B/4{g}c/2e3/4{g}f3/4e/4|
{gcd}c{g}B{GdGe}B{g}A3/4B/4:|2 |
{g}c/4e3/4{A}e3/4f/4{gcd}c{g}B/4{d}A3/4|  !
{g}c/4{d}A3/4{g}c/4e3/4{g}f3/4g/4a3/4f/4|
{gef}e{g}A3/4B/4{g}c/2e3/4{g}f3/4e/4|
{gcd}c{e}A{GAG}A:| |:  !
{g}f3/4g/4|
{ag}ac3/4d/4{gef}e{g}A3/4B/4|
{g}c/4{d}A3/4{g}c/4e3/4{g}f3/4g/4a3/4f/4|  !
{gef}e{g}A3/4B/4{g}c/2e3/4{g}f3/4e/4|
{gcd}c{g}B{GdGe}B|1 {g}f/2g/2|2 {g}A3/4B/4|1 |
{ag}ac3/4d/4{gef}e{g}A3/4B/4|  !
{g}c/4{d}A3/4{g}c/4e3/4{g}f3/4g/4a3/4f/4|
{gef}e{g}A3/4B/4{g}c/2e3/4{g}f3/4e/4|
{gcd}c{e}A{GAG}A:| |:  !
{g}A3/4B/4|
{g}c/4e3/4{A}e3/4f/4{gcd}c3/4B/4{g}c/4{d}A3/4|
{gAGAG}A{g}c/4e3/4{g}f3/4g/4a3/4f/4|  !
{gef}e3/4c/4{G}A3/4B/4{g}c/4e3/4{g}f3/4e/4|
{gcd}c{g}B{GdGe}B{g}A3/4B/4| |
{g}c/4e3/4{A}e3/4f/4{gcd}c3/4B/4{g}c/4{d}A3/4|  !
{gAGAG}A{g}c/4e3/4{g}f3/4g/4a3/4f/4|
{gef}e3/4c/4{G}A3/4B/4{g}c/4e3/4{g}f3/4e/4|
{gcd}c{e}A{GAG}A:| |:  !
{g}f3/4g/4|
a3/4e/4{g}c/4e3/4{g}f3/4e/4{g}c/4e3/4|
{g}A3/4B/4{g}c/4e3/4{g}f/4a3/4e3/4f/4|  !
a3/4c/4{G}A3/4B/4{g}c/4e3/4f3/4e/4|
{gcd}c{g}B{GdGe}B|1 {g}f3/4g/4|1 |
a3/4e/4{g}c/4e3/4{g}f3/4e/4{g}c/4e3/4|  !
{g}A3/4B/4{g}c/4e3/4{g}f3/4g/4a3/4f/4|
{gef}e3/4c/4{G}A3/4B/4{g}c/4e3/4{g}f3/4e/4|
{gcd}c{e}A{GAG}A:|2  !
{g}A3/4B/4|
{g}c/4e3/4{g}f3/4e/4{gcd}c3/4B/4{g}c/4{d}A3/4|
{gAGAG}A{g}c/4e3/4{g}f3/4g/4a3/4f/4|  !
{gef}e3/4c/4{G}A3/4B/4{g}c/4e3/4{g}f3/4e/4|
{gcd}c{e}A{GAG}A|]
